.local/share/icons/Gruvbox-Plus-Dark/actions/16/go-jump-definition.svg

<svg xmlns="http://www.w3.org/2000/svg" width="16" height="16" viewBox="0 0 16 16">
 <defs>
  <style id="current-color-scheme" type="text/css">
   .ColorScheme-Text { color:#ebdbb2; } .ColorScheme-Highlight { color:#458588; }
  </style>
 </defs>
 <path style="fill:currentColor" class="ColorScheme-Text" d="M 5 2.0292969 L 1 3.0292969 L 6 4.0292969 L 10 3.0292969 L 5 2.0292969 z M 13 2.0292969 L 12 3.0292969 L 11 4.0292969 L 13 6.0292969 L 13 4.7441406 C 13.624413 5.6872656 14 6.8079219 14 8.0292969 C 14 11.353297 11.324 13.029297 8 13.029297 L 8 14.029297 C 11.878025 14.029297 15 11.907247 15 8.0292969 C 15 6.1201719 14.232325 4.4054344 13 3.1464844 L 13 2.0292969 z M 1 4.0292969 L 1 9.0292969 L 5 10.029297 L 5 5.0292969 L 1 4.0292969 z M 10 4.0292969 L 6 5.0292969 L 6 10.029297 L 10 9.0292969 L 10 4.0292969 z"/>
</svg>

<svg width="16" height="16" version="1.1" xmlns="http://www.w3.org/2000/svg">
  <defs>
    <style id="current-color-scheme" type="text/css">.ColorScheme-Text { color:#ebdbb2; } .ColorScheme-Highlight { color:#458588; }</style>
  </defs>
  <path class="ColorScheme-Text" d="m5 2-4 1.029 5 1 4-1zm8 0-2 2.029 2 2v-1.285c0.6244 0.9431 1 2.064 1 3.285 0 3.324-2.676 5-6 5v1c3.878 0 7-2.122 7-6 0-1.909-0.7677-3.624-2-4.883zm-12 2.029v5l4 1v-5zm9 0-4 1v5l4-1z" fill="currentColor"/>
</svg>
